X:1
T:36
T:Hugo Distler
T:Job 14:1-2
T:36.  Man That Is Born of a Woman Der Mensch, vom Weibe geboren, lebt kurze Zeit All Saints Day
T:Bärenreiter
T:Bärenreiter
T:Bärenreiter
T:Bärenreiter
T:Bärenreiter
C:Hugo Distler
Z:Job 14:1-2
Z:Bärenreiter
%%score [ 1 ( 2 3 ) 4 ]
L:1/8
Q:1/4=92
M:3/4
K:C
V:1 treble nm="Sop. 1"
V:2 treble nm="Sop. 2"
V:3 treble 
V:4 treble nm="Alto"
V:1
"^(Slowly without dragging)"!p! E2 | !breath!E4 EE |[M:4/4] G4 ^F2 D2 | E4 !breath!E2 EE | %4
w: The|man that is|born of a|wo- man is of|
[M:6/4] (=F4 E2 D4 C2) |[M:4/4]!>(! E4-!>)! E"^piú mosso"!mf!EEE | A2 G2- !breath!GEEE | %7
w: few _ _ _|days, _ and full of|trou- ble, _ and full of|
 A2 G2- !breath!GEEE | (A3 G Acde | dc !breath!A3 G Ac | dedc!>(! A4) | E6!>)!"^a tempo"!p! E2 | %12
w: trou- ble, _ and full of|trou- * * * * *|||ble. The|
[M:3/4] !breath!E4 EE |[M:4/4] (G4 ^F2) D2 | E4 !breath!E2 EE |[M:6/4] (=F4 E2 D4!>(! C2) | %16
w: man that is|born _ of|wo- man is of|few _ _ _|
[M:4/4] E8!>)! || z"^(Faster)""^meno , very delicately"!p! =c c3 c e2- | e4 e2 d2 | B4 e4 | %20
w: days.|He com- eth forth|_ like a|flow- er,|
 z4 A2!>(! AA!>)! | !breath!A2 A3 AAG | A2 A2 z4 | %23
w: and is cut|down; fle- eth as a|sha- dow,|
 z"^hesitating (zögernd)"!pp! A _B3 B !tenuto!E2 ||[M:3/4] z4"^a tempo"!p! E2 | !breath!E4 EE | %26
w: con- tin- ueth not.|The|man that is|
[M:4/4] (G4 ^F2) D2 | E4 !breath!E2 EE |[M:6/4] (F4 E2!>(! D4 C2) | E8!>)! x4 |] %30
w: born _ of|wo- man is of|few _ _ _|days|
V:2
!p! B,2 | !breath!C4 CC |[M:4/4] D2 CB, A,4 | !breath!B,4 CC (E2- |[M:6/4] E2 D3 CDE F3 E | %5
w: The|man that is|born of a wo-|man is of few|_ _ _ _ _ _ _|
[M:4/4]!>(! D4) ^C4!>)! | z!mf! A,A,A, D2 =C2- | !breath!CA,A,A, D2 =C2- | !breath!CA,A,A, (D3 F | %9
w: * days,|and full of trou- ble,|_ and full of trou- ble,|_ and full of trou- *|
 GAGF !breath!D3 A | GF D2!>(! E4)!>)! | E6!p! B,2 |[M:3/4] !breath!C4 CC |[M:4/4] (D2 C)B, A,4 | %14
w: ||ble. The|man that is|born _ of wo|
 !breath!B,4 CC (E2- |[M:6/4] E2 D3 CDE F3!>(! E |[M:4/4] D4)!>)! ^C4 || %17
w: man is of few|_ _ _ _ _ _ _|* days.|
 z"^meno , very delicately"!p! A A3 A B2- | B2 d2 A2 G2 | F4 !breath!B4 | A2 G!>(!G F2!>)! z2 | %21
w: He com- eth forth|_ _ like a|flow- er,|and is cut down,|
 G2!>(! FF !breath!E2!>)! E2- | ED E2 E2 z2 | z!pp! E F3 F !tenuto!E2 ||[M:3/4] z4!p! B,2 | %25
w: and is cut down; as|_ a sha- dow,|con- tin- ueth not.|The|
 !breath!C4 CC |[M:4/4] (D2 C)B, A,4 | !breath!B,4 CC (E2- |[M:6/4] E2 D3 C!>(!DE F3 E | %29
w: man that is|born _ of wo-|man is of few|_ _ _ _ _ _ _|
 D4) ^C4!>)! x4 |] %30
w: * days.|
V:3
 x2 | x6 |[M:4/4] x8 | x8 |[M:6/4] x12 |[M:4/4] x8 | x8 | x8 | x8 | x8 | x8 | x8 |[M:3/4] x6 | %13
[M:4/4] x8 | x8 |[M:6/4] x12 |[M:4/4] x8 || x8 | x8 | F4 E4 | x8 | x8 | x8 | x8 ||[M:3/4] x6 | x6 | %26
[M:4/4] x8 | x8 |[M:6/4] x12 | x12 |] %30
V:4
!p! B,2 | !breath!B,4 A,A, |[M:4/4] E4 D3 ^C | B,4 A,4 |[M:6/4] z2 A,A, (=C4 _B,4) | %5
w: The|man that is|born of a|wo- man|is of few _|
[M:4/4]!>(! A,8!>)! | z8 | z8 | z8 | z!mf! EEE (A4- | A2 G4!>(! F2) | E6!>)!!p! B,2 | %12
w: days,||||and full of trou-||ble. The|
[M:3/4] !breath!B,4 A,A, |[M:4/4] (E4 D3) ^C | B,4 A,4 |[M:6/4] z2 A,A, (=C4!>(! _B,4) | %16
w: man that is|born _ of|wo- man|is of few _|
[M:4/4] A,8!>)! || z8 | z8 |"^meno , very delicately"!p! z4 E2!>(! DD!>)! | C2 z2 D2!>(! CC!>)! | %21
w: days.|||And is cut|down, and is cut|
 _B,2 z2 C2!>(! B,B,!>)! | !breath!A,2 A,3 G,!>(! A,2 | !breath!A,!>)!!pp!A, E3 D !tenuto!E2 || %24
w: down, and is cut|down; as a sha-|dow, con- tin- ueth not.|
[M:3/4] z4!p! =B,2 | !breath!B,4 A,A, |[M:4/4] (E4 D3) ^C | B,4 A,4 | %28
w: The|man that is|born _ of|wo- man|
[M:6/4] z2 A,A, (=C4!>(! _B,4) | A,8!>)! x4 |] %30
w: is of few _|days.|

